src/assets/logo/cbc.svg

<?xml version="1.0" encoding="UTF-8" standalone="no"?><!DOCTYPE svg PUBLIC "-//W3C//DTD SVG 1.1//EN" "http://www.w3.org/Graphics/SVG/1.1/DTD/svg11.dtd"><svg width="100%" height="100%" viewBox="0 0 540 200" version="1.1" xmlns="http://www.w3.org/2000/svg" xmlns:xlink="http://www.w3.org/1999/xlink" xml:space="preserve" xmlns:serif="http://www.serif.com/" style="fill-rule:evenodd;clip-rule:evenodd;stroke-linejoin:round;stroke-miterlimit:1.41421;"><g id="cbc"><text x="212.283px" y="153.562px" style="font-family:'OpenSans-Bold', 'Open Sans', sans-serif;font-weight:700;font-size:149.855px;fill:#a0a0a0;">C<tspan x="307.88px 408.677px " y="153.562px 153.562px ">BC</tspan></text><path d="M99.952,128.86c15.779,0 28.575,-12.796 28.575,-28.574c0,-15.779 -12.796,-28.575 -28.575,-28.575c-15.779,0 -28.575,12.796 -28.575,28.575c0,15.778 12.796,28.574 28.575,28.574Zm-33.001,0c-15.778,0 -28.575,-12.796 -28.575,-28.574c0,-15.779 12.797,-28.575 28.575,-28.575l0,57.149Zm66.098,31.558l0,-27.132l27.131,0c0,15.009 -12.218,27.132 -27.131,27.132Zm-66.098,-120.361l0,27.132l-27.228,0c0.097,-14.913 12.219,-27.132 27.228,-27.132m0,120.361l0,-27.132l-27.131,0c0,15.009 12.122,27.132 27.131,27.132Zm99.098,-35.598l0,-49.165c8.371,5.003 13.951,14.144 13.951,24.534c0,10.487 -5.58,19.628 -13.951,24.631Zm-90.631,-90.632l49.164,0c-5.003,-8.37 -14.143,-13.951 -24.534,-13.951c-10.487,0 -19.627,5.581 -24.63,13.951Zm48.779,132.099l-49.164,0c5.003,8.37 14.143,13.95 24.534,13.95c10.487,0 19.627,-5.58 24.63,-13.95Zm4.426,-33.001c0,15.779 -12.796,28.575 -28.575,28.575c-15.779,0 -28.575,-12.796 -28.575,-28.575l57.15,0Zm4.426,-4.426c15.778,0 28.575,-12.796 28.575,-28.574c0,-15.779 -12.797,-28.575 -28.575,-28.575l0,57.149Zm-4.426,-61.575c0,-15.779 -12.796,-28.575 -28.575,-28.575c-15.779,0 -28.575,12.796 -28.575,28.575l57.15,0Zm-94.672,57.535l0,-49.165c-8.371,5.003 -13.951,14.144 -13.951,24.631c0,10.39 5.58,19.531 13.951,24.534Zm126.229,-57.535l-27.131,0l0,-27.132c14.913,-0.096 27.131,12.123 27.131,27.132" style="fill:#a0a0a0;fill-rule:nonzero;"/></g></svg>

<?xml version="1.0" encoding="UTF-8" standalone="no"?>
<!DOCTYPE svg PUBLIC "-//W3C//DTD SVG 1.1//EN" "http://www.w3.org/Graphics/SVG/1.1/DTD/svg11.dtd">
<svg width="100%" height="100%" viewBox="0 0 540 200" version="1.1" xmlns="http://www.w3.org/2000/svg" xmlns:xlink="http://www.w3.org/1999/xlink" xml:space="preserve" xmlns:serif="http://www.serif.com/" style="fill-rule:evenodd;clip-rule:evenodd;stroke-linejoin:round;stroke-miterlimit:2;">
    <g id="cbc">
        <g>
            <g transform="matrix(1,0,0,1,212.283,153.562)">
                <text x="0px" y="0px" style="font-family:'OpenSans-Bold', 'Open Sans', sans-serif;font-weight:700;font-size:149.855px;fill:rgb(208,208,208);">C</text>
            </g>
            <g transform="matrix(1,0,0,1,307.88,153.562)">
                <text x="0px" y="0px" style="font-family:'OpenSans-Bold', 'Open Sans', sans-serif;font-weight:700;font-size:149.855px;fill:rgb(208,208,208);">BC</text>
            </g>
        </g>
        <path d="M99.952,128.86C115.731,128.86 128.527,116.064 128.527,100.286C128.527,84.507 115.731,71.711 99.952,71.711C84.173,71.711 71.377,84.507 71.377,100.286C71.377,116.064 84.173,128.86 99.952,128.86ZM66.951,128.86C51.173,128.86 38.376,116.064 38.376,100.286C38.376,84.507 51.173,71.711 66.951,71.711L66.951,128.86ZM133.049,160.418L133.049,133.286L160.18,133.286C160.18,148.295 147.962,160.418 133.049,160.418ZM66.951,40.057L66.951,67.189L39.723,67.189C39.82,52.276 51.942,40.057 66.951,40.057M66.951,160.418L66.951,133.286L39.82,133.286C39.82,148.295 51.942,160.418 66.951,160.418ZM166.049,124.82L166.049,75.655C174.42,80.658 180,89.799 180,100.189C180,110.676 174.42,119.817 166.049,124.82ZM75.418,34.188L124.582,34.188C119.579,25.818 110.439,20.237 100.048,20.237C89.561,20.237 80.421,25.818 75.418,34.188ZM124.197,166.287L75.033,166.287C80.036,174.657 89.176,180.237 99.567,180.237C110.054,180.237 119.194,174.657 124.197,166.287ZM128.623,133.286C128.623,149.065 115.827,161.861 100.048,161.861C84.269,161.861 71.473,149.065 71.473,133.286L128.623,133.286ZM133.049,128.86C148.827,128.86 161.624,116.064 161.624,100.286C161.624,84.507 148.827,71.711 133.049,71.711L133.049,128.86ZM128.623,67.285C128.623,51.506 115.827,38.71 100.048,38.71C84.269,38.71 71.473,51.506 71.473,67.285L128.623,67.285ZM33.951,124.82L33.951,75.655C25.58,80.658 20,89.799 20,100.286C20,110.676 25.58,119.817 33.951,124.82ZM160.18,67.285L133.049,67.285L133.049,40.153C147.962,40.057 160.18,52.276 160.18,67.285" style="fill:rgb(208,208,208);fill-rule:nonzero;"/>
    </g>
</svg>
